resources/dark/controls/G.svg

<svg xmlns="http://www.w3.org/2000/svg" width="16" height="16"><style>.icon-canvas-transparent{opacity:0;fill:#f6f6f6}.icon-vs-out{fill:#f6f6f6}.icon-vs-bg{fill:#424242}.icon-vs-fg{fill:#f0eff1}</style><path class="icon-canvas-transparent" d="M16 16H0V0h16v16z" id="canvas"/><path class="icon-vs-out" d="M16 2v14H0V2h3V0h9v2h4z" id="outline"/><path class="icon-vs-bg" d="M6 3.5L7 6H6l-.5-1.25L5 6H4l1-2.5L4 1h1l.5 1.25L6 1h1L6 3.5zM10 1l-.5 1.5L9 1H8l1 3v2h1V4l1-3h-1zm2 2v1h2v10H2V4h1V3H1v12h14V3h-3z" id="iconBg"/><path class="icon-vs-fg" d="M14 4v10H2V4h1v3h8V4h3z" id="iconFg"/></svg>

<svg xmlns="http://www.w3.org/2000/svg" viewBox="0 0 16 16"><defs><style>.cls-1{fill:#424242;}.cls-2{fill:#f6f6f6;}</style></defs><title>GroupBox_16x</title><g id="Layer_2" data-name="Layer 2"><g id="Layer_1-2" data-name="Layer 1"><path id="outline" class="cls-1" d="M16,2V16H0V2H3V0h9V2Z"/><path id="iconBg" class="cls-2" d="M6,3.5,7,6H6L5.5,4.8,5,6H4L5,3.5,4,1H5l.5,1.3L6,1H7ZM10,1,9.5,2.5,9,1H8L9,4V6h1V4l1-3Zm2,2V4h2V14H2V4H3V3H1V15H15V3Z"/><path id="iconFg" class="cls-1" d="M14,4V14H2V4H3V7h8V4Z"/></g></g></svg>
